app/public/dtpr-icons/dtpr_api.svg

<svg width="36" height="36" viewBox="0 0 36 36" fill="none" xmlns="http://www.w3.org/2000/svg">
<path d="M31.8564 8.8453L19 1.42265C18.3812 1.06538 17.6188 1.06538 17 1.42265L4.14359 8.8453C3.52479 9.20257 3.14359 9.86282 3.14359 10.5774V25.4226C3.14359 26.1372 3.52479 26.7974 4.14359 27.1547L17 34.5774C17.6188 34.9346 18.3812 34.9346 19 34.5774L31.8564 27.1547C32.4752 26.7974 32.8564 26.1372 32.8564 25.4226V10.5774C32.8564 9.86282 32.4752 9.20256 31.8564 8.8453Z" stroke="black" stroke-width="2"/>
<path d="M27 18C27 22.9706 22.9706 27 18 27C13.0294 27 9 22.9706 9 18C9 13.0294 13.0294 9 18 9C22.9706 9 27 13.0294 27 18Z" fill="white" stroke="black" stroke-width="2"/>
<rect x="15" y="15" width="6" height="6" rx="1" fill="white" stroke="black" stroke-width="2"/>
</svg>

<svg xmlns="http://www.w3.org/2000/svg" width="36" height="36" fill="none"><path stroke="#000" stroke-width="2" d="M31.856 8.845 19 1.423a2 2 0 0 0-2 0L4.144 8.845a2 2 0 0 0-1 1.732v14.846a2 2 0 0 0 1 1.732L17 34.577a2 2 0 0 0 2 0l12.856-7.422a2 2 0 0 0 1-1.732V10.577a2 2 0 0 0-1-1.732Z"/><path fill="#fff" stroke="#000" stroke-width="2" d="M27 18a9 9 0 1 1-18 0 9 9 0 0 1 18 0Z"/><rect width="6" height="6" x="15" y="15" fill="#fff" stroke="#000" stroke-width="2" rx="1"/></svg>
